X: 3
T: Ballydesmond March, The
Z: Thady Quill
S: https://thesession.org/tunes/8880#setting30087
R: barndance
M: 4/4
L: 1/8
K: Gmaj
DG |: B2AB cBAF | G2B2 D2EF | G2AB cBAG | A2D>E D2d>c |
| BcBA G2AB | cBcd e2d>c | BGB/c/d ADF/G/A |1 G2G>F G2AG :|2 G2 G>F G2Bc ||
|: d2Bd gdcB | c2 c>d cAFD | GB c/B/A B/A/G AF | D2D>E D2G>F |
| ECEG c2d>c | BGDG B2d>c | BG B/c/d AD F/G/A |1 G2G>F G2Bc :|2 G2G>F G4 ||
